X: 36
T:Gay Young Fireman, The
M:4/4
L:1/8
S:Capt. F. O'Neill
R:Air
K:G
"Moderato" ED|E2 A2 A2 GA|B2 AG E2 D2|G3 A G2 D2|EDEG A2 z2|
D2 DD d3 B|A2 G2 G2 AB|c3 A B2 AG|E2 D2 D2||
%
% Some fifty years ago I heard a ballad sung to this air by a young lady
% from Brooklyn, NY. It recited the fascinations of A Gay Young Fireman
% of that city. The strain, unmistakably of Irish origin, displays
% marked  individuality.

